fs/text_wrap_off_20_regular.svg

<svg viewBox="0 0 20 20" fill="none" xmlns="http://www.w3.org/2000/svg" height="1em" width="1em">
  <path d="M2.85355 2.14645C2.65829 1.95118 2.34171 1.95118 2.14645 2.14645C1.95118 2.34171 1.95118 2.65829 2.14645 2.85355L3.29289 4H2.5C2.22386 4 2 4.22386 2 4.5C2 4.77614 2.22386 5 2.5 5H4.29289L8.29289 9H2.5C2.22386 9 2 9.22386 2 9.5C2 9.77614 2.22386 10 2.5 10H9.29289L11.8246 12.5317C11.7596 12.5559 11.6987 12.5942 11.6464 12.6464L10.1464 14.1464C9.95118 14.3417 9.95118 14.6583 10.1464 14.8536L11.6464 16.3536C11.8417 16.5488 12.1583 16.5488 12.3536 16.3536C12.5488 16.1583 12.5488 15.8417 12.3536 15.6464L11.7071 15H14.2929L17.1464 17.8536C17.3417 18.0488 17.6583 18.0488 17.8536 17.8536C18.0488 17.6583 18.0488 17.3417 17.8536 17.1464L2.85355 2.14645ZM13.2929 14H11.7071L12.3536 13.3536C12.4058 13.3013 12.4441 13.2404 12.4683 13.1754L13.2929 14ZM11.1211 9L12.1211 10H16C17.1046 10 18 10.8954 18 12C18 13.0651 17.1675 13.9357 16.1177 13.9966L16.9631 14.8421C18.1475 14.4408 19 13.32 19 12C19 10.3431 17.6569 9 16 9H11.1211ZM6.12109 4L7.12109 5H17.5C17.7761 5 18 4.77614 18 4.5C18 4.22386 17.7761 4 17.5 4H6.12109ZM2 14.5C2 14.2239 2.22386 14 2.5 14H7.5C7.77614 14 8 14.2239 8 14.5C8 14.7761 7.77614 15 7.5 15H2.5C2.22386 15 2 14.7761 2 14.5Z" fill="#212121"/>
</svg>

<svg viewBox="0 0 20 20" fill="none" xmlns="http://www.w3.org/2000/svg" height="1em" width="1em">
  <path d="M2.854 2.146a.5.5 0 1 0-.708.708L3.293 4H2.5a.5.5 0 0 0 0 1h1.793l4 4H2.5a.5.5 0 0 0 0 1h6.793l2.532 2.532a.498.498 0 0 0-.179.114l-1.5 1.5a.5.5 0 0 0 0 .708l1.5 1.5a.5.5 0 0 0 .708-.708L11.707 15h2.586l2.853 2.854a.5.5 0 0 0 .708-.708l-15-15ZM13.293 14h-1.586l.647-.646a.498.498 0 0 0 .114-.179l.825.825ZM11.12 9l1 1H16a2 2 0 0 1 .118 3.997l.845.845A3.001 3.001 0 0 0 16 9h-4.879Zm-5-5 1 1H17.5a.5.5 0 0 0 0-1H6.121ZM2 14.5a.5.5 0 0 1 .5-.5h5a.5.5 0 0 1 0 1h-5a.5.5 0 0 1-.5-.5Z" fill="#212121"/>
</svg>
